OBS Studio/Fluent Dark Grey/sources/gamepad.svg

<svg viewBox="0 128 1024 704" xmlns="http://www.w3.org/2000/svg"><path d="m672 128c32.333 0 63.5 4.167 93.5 12.5s58 20.167 84 35.5 49.75 33.75 71.25 55.25 39.917 45.25 55.25 71.25 27.17 54 35.5 84 12.5 61.167 12.5 93.5-4.17 63.5-12.5 93.5-20.167 58-35.5 84-33.75 49.75-55.25 71.25-45.25 39.917-71.25 55.25-54 27.167-84 35.5-61.167 12.5-93.5 12.5h-320c-32.333 0-63.5-4.167-93.5-12.5s-58-20.167-84-35.5-49.75-33.75-71.25-55.25-39.917-45.25-55.25-71.25-27.167-54-35.5-84c-8.3333-30-12.5-61.167-12.5-93.5s4.1667-63.5 12.5-93.5c8.3333-30 20.167-58 35.5-84s33.75-49.75 55.25-71.25 45.25-39.917 71.25-55.25 54-27.167 84-35.5 61.167-12.5 93.5-12.5zm0 640c39.667 0 77-7.583 112-22.75s65.5-35.75 91.5-61.75 46.583-56.5 61.75-91.5 22.75-72.333 22.75-112c0-26.333-3.417-51.75-10.25-76.25s-16.5-47.417-29-68.75-27.583-40.833-45.25-58.5-37.167-32.75-58.5-45.25-44.25-22.167-68.75-29-49.917-10.25-76.25-10.25h-320c-39.667 0-77 7.583-112 22.75s-65.5 35.75-91.5 61.75-46.583 56.5-61.75 91.5c-15.167 35-22.75 72.333-22.75 112 0 40 7.5 77.5 22.5 112.5s35.5 65.5 61.5 91.5 56.5 46.5 91.5 61.5 72.5 22.5 112.5 22.5zm-224-288c0 8.667-3.167 16.167-9.5 22.5s-13.833 9.5-22.5 9.5h-96v96c0 8.667-3.167 16.167-9.5 22.5s-13.833 9.5-22.5 9.5-16.167-3.167-22.5-9.5-9.5-13.833-9.5-22.5v-96h-96c-8.667 0-16.167-3.167-22.5-9.5s-9.5-13.833-9.5-22.5 3.167-16.167 9.5-22.5 13.833-9.5 22.5-9.5h96v-96c0-8.667 3.167-16.167 9.5-22.5s13.833-9.5 22.5-9.5 16.167 3.167 22.5 9.5 9.5 13.833 9.5 22.5v96h96c8.667 0 16.167 3.167 22.5 9.5s9.5 13.833 9.5 22.5zm384-96c0 9-1.667 17.333-5 25s-7.917 14.417-13.75 20.25-12.583 10.417-20.25 13.75-16 5-25 5-17.417-1.667-25.25-5-14.583-7.833-20.25-13.5-10.167-12.417-13.5-20.25-5-16.25-5-25.25 1.667-17.333 5-25 7.917-14.417 13.75-20.25 12.583-10.417 20.25-13.75 16-5 25-5c8.667 0 16.917 1.667 24.75 5s14.667 7.917 20.5 13.75 10.417 12.667 13.75 20.5 5 16.083 5 24.75zm-128 192c0 9-1.667 17.333-5 25s-7.917 14.417-13.75 20.25-12.583 10.417-20.25 13.75-16 5-25 5-17.417-1.667-25.25-5-14.583-7.833-20.25-13.5-10.167-12.417-13.5-20.25-5-16.25-5-25.25 1.667-17.333 5-25 7.917-14.417 13.75-20.25 12.583-10.417 20.25-13.75 16-5 25-5c8.667 0 16.917 1.667 24.75 5s14.667 7.917 20.5 13.75 10.417 12.667 13.75 20.5 5 16.083 5 24.75z" fill="#fff"></path></svg>

<!-- Exported by Character Map UWP -->
<svg height="100%" viewBox="0 128 1024 704" width="100%" xmlns="http://www.w3.org/2000/svg" xmlns:xlink="http://www.w3.org/1999/xlink">
  <path d="M672,128C704.333,128 735.5,132.167 765.5,140.5C795.5,148.833 823.5,160.667 849.5,176C875.5,191.333 899.25,209.75 920.75,231.25C942.25,252.75 960.667,276.5 976,302.5C991.333,328.5 1003.17,356.5 1011.5,386.5C1019.83,416.5 1024,447.667 1024,480C1024,512.333 1019.83,543.5 1011.5,573.5C1003.17,603.5 991.333,631.5 976,657.5C960.667,683.5 942.25,707.25 920.75,728.75C899.25,750.25 875.5,768.667 849.5,784C823.5,799.333 795.5,811.167 765.5,819.5C735.5,827.833 704.333,832 672,832L352,832C319.667,832 288.5,827.833 258.5,819.5C228.5,811.167 200.5,799.333 174.5,784C148.5,768.667 124.75,750.25 103.25,728.75C81.75,707.25 63.3333,683.5 48,657.5C32.6667,631.5 20.8333,603.5 12.5,573.5C4.16667,543.5 0,512.333 0,480C0,447.667 4.16667,416.5 12.5,386.5C20.8333,356.5 32.6667,328.5 48,302.5C63.3333,276.5 81.75,252.75 103.25,231.25C124.75,209.75 148.5,191.333 174.5,176C200.5,160.667 228.5,148.833 258.5,140.5C288.5,132.167 319.667,128 352,128ZM672,768C711.667,768 749,760.417 784,745.25C819,730.083 849.5,709.5 875.5,683.5C901.5,657.5 922.083,627 937.25,592C952.417,557 960,519.667 960,480C960,453.667 956.583,428.25 949.75,403.75C942.917,379.25 933.25,356.333 920.75,335C908.25,313.667 893.167,294.167 875.5,276.5C857.833,258.833 838.333,243.75 817,231.25C795.667,218.75 772.75,209.083 748.25,202.25C723.75,195.417 698.333,192 672,192L352,192C312.333,192 275,199.583 240,214.75C205,229.917 174.5,250.5 148.5,276.5C122.5,302.5 101.917,333 86.75,368C71.5833,403 64,440.333 64,480C64,520 71.5,557.5 86.5,592.5C101.5,627.5 122,658 148,684C174,710 204.5,730.5 239.5,745.5C274.5,760.5 312,768 352,768ZM448,480C448,488.667 444.833,496.167 438.5,502.5C432.167,508.833 424.667,512 416,512L320,512L320,608C320,616.667 316.833,624.167 310.5,630.5C304.167,636.833 296.667,640 288,640C279.333,640 271.833,636.833 265.5,630.5C259.167,624.167 256,616.667 256,608L256,512L160,512C151.333,512 143.833,508.833 137.5,502.5C131.167,496.167 128,488.667 128,480C128,471.333 131.167,463.833 137.5,457.5C143.833,451.167 151.333,448 160,448L256,448L256,352C256,343.333 259.167,335.833 265.5,329.5C271.833,323.167 279.333,320 288,320C296.667,320 304.167,323.167 310.5,329.5C316.833,335.833 320,343.333 320,352L320,448L416,448C424.667,448 432.167,451.167 438.5,457.5C444.833,463.833 448,471.333 448,480ZM832,384C832,393 830.333,401.333 827,409C823.667,416.667 819.083,423.417 813.25,429.25C807.417,435.083 800.667,439.667 793,443C785.333,446.333 777,448 768,448C759,448 750.583,446.333 742.75,443C734.917,439.667 728.167,435.167 722.5,429.5C716.833,423.833 712.333,417.083 709,409.25C705.667,401.417 704,393 704,384C704,375 705.667,366.667 709,359C712.333,351.333 716.917,344.583 722.75,338.75C728.583,332.917 735.333,328.333 743,325C750.667,321.667 759,320 768,320C776.667,320 784.917,321.667 792.75,325C800.583,328.333 807.417,332.917 813.25,338.75C819.083,344.583 823.667,351.417 827,359.25C830.333,367.083 832,375.333 832,384ZM704,576C704,585 702.333,593.333 699,601C695.667,608.667 691.083,615.417 685.25,621.25C679.417,627.083 672.667,631.667 665,635C657.333,638.333 649,640 640,640C631,640 622.583,638.333 614.75,635C606.917,631.667 600.167,627.167 594.5,621.5C588.833,615.833 584.333,609.083 581,601.25C577.667,593.417 576,585 576,576C576,567 577.667,558.667 581,551C584.333,543.333 588.917,536.583 594.75,530.75C600.583,524.917 607.333,520.333 615,517C622.667,513.667 631,512 640,512C648.667,512 656.917,513.667 664.75,517C672.583,520.333 679.417,524.917 685.25,530.75C691.083,536.583 695.667,543.417 699,551.25C702.333,559.083 704,567.333 704,576Z" fill="#FFFFFF" fill-opacity="1">
  </path>
</svg>
